X:1
T:Kinross, 87.87 D
T:Kinross, 87.87 D
T:George Coles Stebbins, 1901
T:Public Domain Courtesy of the Cyber Hymnal™
C:George Coles Stebbins, 1901
Z:Public Domain
Z:Courtesy of the Cyber Hymnal™
%%score ( 1 2 ) ( 3 4 )
L:1/8
Q:1/4=110
M:4/4
K:G
V:1 treble 
V:2 treble 
V:3 bass 
V:4 bass 
V:1
 [GB]3 [GB] [DA]2 [DG]2 | [Gc]2 [GB]2 (BA) [DG]2 | [CE]2 [DF]2 [DG]2 [GB]2 | [GB]2 (AG) [FA]4 | %4
 [Gc]3 [Gc] [GB]2 [GA]2 | [Gd]2 [Fd]2 (dc) [DB]2 | [EA]2 E2 [DG]2 (FE) | [DF]3 [DG] [DG]4 | %8
 [Gd]3 [Gd] [Gc]2 [GB]2 | [Ge]2 [Gd]2 (dc) [GB]2 | [DA]2 [DG]2 [Gc]2 [GB]2 | [GB]2 (AG) [FA]4 | %12
 [GB]3 [GB] [Fc]2 [FA]2 | [Gd]2 [Fd]2 (dc) [DB]2 | [EA]2 E2 [DG]2 (FE) | [DF]3 [DG] [DG]6 |] %16
V:2
 x8 | x4 F2 x2 | x8 | x2 E2 x4 | x8 | x4 G2 x2 | x2 E2 D2 x2 | x8 | x8 | x4 F2 x2 | x8 | x2 E2 x4 | %12
 x8 | x4 G2 x2 | x2 E2 D2 x2 | x10 |] %16
V:3
 [G,D]3 [G,D] [G,C]2 [G,B,]2 | [G,E]2 [G,D]2 (DC) [G,,B,]2 | [C,G,]2 [C,A,]2 [B,,G,]2 [G,,D]2 | %3
 [E,^C]2 [A,,C]2 [D,D]4 | [E,C]3 [E,C] [D,D]2 [C,E]2 | [B,,D]2 [A,,C]2 (B,A,) [G,,G,]2 | %6
 [C,G,]2 [C,A,]2 [D,B,]2 [D,B,]2 | [D,C]3 [G,,B,] [G,,B,]4 | [G,B,]3 [G,B,] [G,E]2 [G,D]2 | %9
 C2 [B,D]2 [A,D]2 [G,D]2 | [F,C]2 [G,B,]2 [E,C]2 [D,D]2 | [^C,E]2 [A,,^C]2 [D,D]4 | %12
 [G,D]3 [G,D] [A,D]2 [CD]2 | [B,D]2 [A,C]2 (B,A,) [G,,G,]2 | [C,G,]2 [C,A,]2 [D,B,]2 [D,B,]2 | %15
 [D,C]3 [G,,B,] [G,,B,]6 |] %16
V:4
 x8 | x4 D,2 x2 | x8 | x8 | x8 | x4 G,,2 x2 | x8 | x8 | x8 | C2 x6 | x8 | x8 | x8 | x4 G,2 x2 | %14
 x8 | x10 |] %16

